neru-light-classic/32x32/apps/woeusbgui-icon.svg

<?xml version="1.0" encoding="UTF-8" standalone="no"?>
<svg
   xmlns:dc="http://purl.org/dc/elements/1.1/"
   xmlns:cc="http://creativecommons.org/ns#"
   xmlns:rdf="http://www.w3.org/1999/02/22-rdf-syntax-ns#"
   xmlns:svg="http://www.w3.org/2000/svg"
   xmlns="http://www.w3.org/2000/svg"
   xmlns:sodipodi="http://sodipodi.sourceforge.net/DTD/sodipodi-0.dtd"
   xmlns:inkscape="http://www.inkscape.org/namespaces/inkscape"
   width="32"
   height="32"
   version="1"
   id="svg36"
   sodipodi:docname="woeusbgui-icon.svg"
   inkscape:version="0.92.1 r">
  <metadata
     id="metadata42">
    <rdf:RDF>
      <cc:Work
         rdf:about="">
        <dc:format>image/svg+xml</dc:format>
        <dc:type
           rdf:resource="http://purl.org/dc/dcmitype/StillImage" />
      </cc:Work>
    </rdf:RDF>
  </metadata>
  <defs
     id="defs40" />
  <sodipodi:namedview
     pagecolor="#ffffff"
     bordercolor="#666666"
     borderopacity="1"
     objecttolerance="10"
     gridtolerance="10"
     guidetolerance="10"
     inkscape:pageopacity="0"
     inkscape:pageshadow="2"
     inkscape:window-width="640"
     inkscape:window-height="480"
     id="namedview38"
     showgrid="false"
     inkscape:zoom="24.925514"
     inkscape:cx="10.678229"
     inkscape:cy="4.2240646"
     inkscape:current-layer="svg36" />
  <path
     inkscape:connector-curvature="0"
     style="opacity:1;fill:#8e8e8e;fill-opacity:1;fill-rule:evenodd;stroke:none;stroke-width:1.03534329;stroke-linecap:round;stroke-linejoin:bevel;stroke-miterlimit:4;stroke-dasharray:none;stroke-dashoffset:0;stroke-opacity:1"
     d="m 7.472657,1.8984378 c -3.088651,0 -5.574219,2.4855676 -5.574219,5.5742186 V 16.388672 H 30.101563 V 7.4726564 c 1e-6,-3.088651 -2.485567,-5.5742186 -5.574219,-5.5742186 z"
     id="rect4497-3-3" />
  <rect
     style="fill:#e6e6e6;fill-opacity:1;stroke-width:0.63494134"
     width="17.789534"
     height="10.657478"
     x="7.1078415"
     y="6.7966108"
     id="rect4-3" />
  <rect
     style="opacity:1;stroke-width:0.63494134;fill:#666666"
     width="4.4473834"
     height="3.1972435"
     x="8.886795"
     y="11.059603"
     id="rect14" />
  <rect
     style="opacity:1;stroke-width:0.63494134;fill:#666666"
     width="4.4473834"
     height="3.1972435"
     x="18.67104"
     y="11.059603"
     id="rect16" />
  <path
     inkscape:connector-curvature="0"
     style="opacity:1;fill:#4d4d4d;fill-opacity:1;fill-rule:evenodd;stroke:none;stroke-width:1.03534329;stroke-linecap:round;stroke-linejoin:bevel;stroke-miterlimit:4;stroke-dasharray:none;stroke-dashoffset:0;stroke-opacity:1"
     d="M 30.101563,16.388672 H 1.898438 v 8.138671 c 0,3.088651 2.485568,5.574219 5.574219,5.574219 h 17.054687 c 3.088651,10e-7 5.574219,-2.485567 5.574219,-5.574219 z"
     id="path4513" />
  <rect
     style="opacity:1;fill:#666666;stroke-width:0.63494134"
     width="17.051966"
     height="2.1314957"
     x="7.4766235"
     y="20.651333"
     rx="1.0657479"
     ry="1.0657479"
     id="rect8-6" />
  <rect
     style="opacity:1;fill:#666666;stroke-width:0.63494134"
     width="12.788974"
     height="2.1314957"
     x="9.6081238"
     y="24.914322"
     rx="1.0657479"
     ry="1.0657479"
     id="rect10-7" />
  <g
     style="stroke-width:1.33333337"
     transform="matrix(0.75,0,0,0.75,4.7012488,5.4463869)"
     id="g4592">
    <circle
       id="circle4582"
       r="8"
       cy="23"
       cx="24"
       style="fill:#48aeff;stroke-width:1.33333337" />
    <path
       inkscape:connector-curvature="0"
       id="path4584"
       d="M 20.214381,19.00009 H 22.7858 c 0.1185,0 0.2142,0.09558 0.2142,0.21429 V 21.7858 C 23,21.9043 22.9043,22 22.7858,22 H 20.214291 C 20.09558,22 20,21.9043 20,21.7858 V 19.21429 C 20,19.09558 20.09558,19 20.214291,19 Z"
       style="fill:#ffffff;stroke-width:1.33333337" />
    <path
       inkscape:connector-curvature="0"
       id="path4586"
       d="m 25.214191,19 h 2.571318 C 27.904304,19 28,19.09558 28,19.214297 v 2.571497 C 28,21.904297 27.9043,22 27.785809,22 H 25.214492 C 25.095696,22 25,21.9043 25,21.785794 v -2.571497 c 0,-0.118717 0.09557,-0.214294 0.214279,-0.214294 z"
       style="fill:#ffffff;stroke-width:1.33333337" />
    <path
       inkscape:connector-curvature="0"
       id="path4588"
       d="M 20.214381,24.00009 H 22.7858 c 0.1185,0 0.2142,0.09558 0.2142,0.21429 V 26.7858 C 23,26.9043 22.9043,27 22.7858,27 H 20.214291 C 20.09558,27 20,26.9043 20,26.7858 V 24.21429 C 20,24.09558 20.09558,24 20.214291,24 Z"
       style="fill:#ffffff;stroke-width:1.33333337" />
    <path
       inkscape:connector-curvature="0"
       id="path4590"
       d="m 25.214191,24 h 2.571318 C 27.904304,24 28,24.09558 28,24.214296 v 2.571498 C 28,26.904297 27.9043,27 27.785809,27 H 25.214492 C 25.095696,27 25,26.9043 25,26.785794 v -2.571498 c 0,-0.118716 0.09557,-0.214293 0.214279,-0.214293 z"
       style="fill:#ffffff;stroke-width:1.33333337" />
  </g>
</svg>

<svg xmlns="http://www.w3.org/2000/svg" width="32" height="32" version="1"><path d="M7.473 1.898a5.561 5.561 0 0 0-5.575 5.575v8.916h28.204V7.473a5.561 5.561 0 0 0-5.575-5.575z" fill="#8e8e8e" fill-rule="evenodd"/><path fill="#e6e6e6" d="M7.108 6.797h17.79v10.657H7.108z"/><path fill="#666" d="M8.887 11.06h4.447v3.197H8.887zM18.671 11.06h4.447v3.197h-4.447z"/><path d="M30.102 16.389H1.898v8.138a5.561 5.561 0 0 0 5.575 5.575h17.054a5.561 5.561 0 0 0 5.575-5.575z" fill="#4d4d4d" fill-rule="evenodd"/><rect width="17.052" height="2.131" x="7.477" y="20.651" rx="1.066" ry="1.066" fill="#666"/><rect width="12.789" height="2.131" x="9.608" y="24.914" rx="1.066" ry="1.066" fill="#666"/><g transform="matrix(.75 0 0 .75 4.701 5.446)" stroke-width="1.333"><circle r="8" cy="23" cx="24" fill="#48aeff"/><path d="M20.214 19h2.572c.118 0 .214.096.214.214v2.572a.214.214 0 0 1-.214.214h-2.572a.214.214 0 0 1-.214-.214v-2.572c0-.118.096-.214.214-.214zM25.214 19h2.572c.118 0 .214.096.214.214v2.572a.214.214 0 0 1-.214.214h-2.572a.214.214 0 0 1-.214-.214v-2.572c0-.118.096-.214.214-.214zM20.214 24h2.572c.118 0 .214.096.214.214v2.572a.214.214 0 0 1-.214.214h-2.572a.214.214 0 0 1-.214-.214v-2.572c0-.118.096-.214.214-.214zM25.214 24h2.572c.118 0 .214.096.214.214v2.572a.214.214 0 0 1-.214.214h-2.572a.214.214 0 0 1-.214-.214v-2.572c0-.118.096-.214.214-.214z" fill="#fff"/></g></svg>
